src/assets/cursors/Default.svg

<svg width="16" height="23" viewBox="0 0 16 23" fill="none" xmlns="http://www.w3.org/2000/svg">
<g clip-path="url(#clip0_0_232)" filter="url(#filter0_d_0_232)">
<path fill-rule="evenodd" clip-rule="evenodd" d="M8.14677 19.4727L10.0098 18.4697L11.6248 17.6307L9.05677 12.8147H13.3888L2.00977 1.40674V17.4217L5.32577 14.2007L8.14677 19.4727Z" fill="white"/>
<path fill-rule="evenodd" clip-rule="evenodd" d="M8.4308 17.9996L10.1958 17.0586L7.42147 11.857H11.025L3 3.81396V15.002L5.52984 12.5599L8.4308 17.9996Z" fill="black"/>
</g>
<defs>
<filter id="filter0_d_0_232" x="0" y="0" width="16" height="23" filterUnits="userSpaceOnUse" color-interpolation-filters="sRGB">
<feFlood flood-opacity="0" result="BackgroundImageFix"/>
<feColorMatrix in="SourceAlpha" type="matrix" values="0 0 0 0 0 0 0 0 0 0 0 0 0 0 0 0 0 0 127 0" result="hardAlpha"/>
<feOffset dy="1"/>
<feGaussianBlur stdDeviation="1"/>
<feColorMatrix type="matrix" values="0 0 0 0 0 0 0 0 0 0 0 0 0 0 0 0 0 0 0.4049 0"/>
<feBlend mode="normal" in2="BackgroundImageFix" result="effect1_dropShadow_0_232"/>
<feBlend mode="normal" in="SourceGraphic" in2="effect1_dropShadow_0_232" result="shape"/>
</filter>
<clipPath id="clip0_0_232">
<rect width="12" height="19" fill="white" transform="translate(2 1)"/>
</clipPath>
</defs>
</svg>

<svg width="16" height="23" fill="none" xmlns="http://www.w3.org/2000/svg"><g clip-path="url(#clip0_0_232)" filter="url(#filter0_d_0_232)" fill-rule="evenodd" clip-rule="evenodd"><path d="M8.147 19.473l1.863-1.003 1.615-.84-2.568-4.815h4.332L2.009 1.407v16.015L5.327 14.2l2.82 5.272z" fill="#fff"/><path d="M8.43 18l1.766-.941-2.775-5.202h3.604L3 3.814v11.188l2.53-2.442L8.43 18z" fill="#000"/></g><defs><filter id="filter0_d_0_232" x="0" y="0" width="16" height="23" filterUnits="userSpaceOnUse" color-interpolation-filters="sRGB"><feFlood flood-opacity="0" result="BackgroundImageFix"/><feColorMatrix in="SourceAlpha" values="0 0 0 0 0 0 0 0 0 0 0 0 0 0 0 0 0 0 127 0" result="hardAlpha"/><feOffset dy="1"/><feGaussianBlur stdDeviation="1"/><feColorMatrix values="0 0 0 0 0 0 0 0 0 0 0 0 0 0 0 0 0 0 0.4049 0"/><feBlend in2="BackgroundImageFix" result="effect1_dropShadow_0_232"/><feBlend in="SourceGraphic" in2="effect1_dropShadow_0_232" result="shape"/></filter><clipPath id="clip0_0_232"><path fill="#fff" transform="translate(2 1)" d="M0 0H12V19H0z"/></clipPath></defs></svg>
